!!!COM: Haydn, Franz Joseph
!!!OPR: String Quartet in G Minor
!!!ONM: Opus 20, No. 3
!!!OTL: Affettuoso 
!!!OMV: 2
!!!SCT: H III:33
!!!SCA: Thematisch-bibliographisches Werkevererzeichnis (A. van Hoboken)
!!!YOR: Pleyel Edition, volume 3
!!!EED: Frances Bennion
!!!ENC: Frances Bennion
!!!CDT: 1732/3/31/-1809/5/31/
!!!OCY: Österreich
!!!YEC: Copyright (c) 1994, 2000 Center for Computer Assisted Research in the Humanities
!!!YEM: Rights to all derivative editions reserved.
!!!YEM: Refer to licensing agreement for further details.
!!!YEN: United States of America
**kern	**kern	**kern	**kern
*k[b-e-]	*k[b-e-]	*k[b-e-]	*k[b-e-]
*g:	*g:	*g:	*g:
*clefF	*clefF	*clefC3	*clefF4
*M3/4	*M3/4	*M3/4	*M3/4
*tb8	*tb8	*tb8	*tb8
=0-	=0-	=0-	=0-
2r	2r	2r	2r
4d	4r	4r	4r
=1	=1	=1	=1
4b-	4B-	2.r	4G
4a	4c	.	4A
4g	4d	.	4B-
=2	=2	=2	=2
4g	2e-	2r	2c
4g	.	.	.
4g	4d	4d	4B-
=3	=3	=3	=3
4cc	[2.f#	[2.c	[2.A
4cc	.	.	.
4dd	.	.	.
=4	=4	=4	=4
2ee-	2.f#_	2.c_	2.A_
4ee-	.	.	.
=5	=5	=5	=5
4dd	4f#]	4c]	4A]
4r	2r	2r	2r
4d	.	.	.
=6	=6	=6	=6
4b-	4B-	2.r	4G
4a	4c	.	4A
4g	4d	.	4B-
=7	=7	=7	=7
4g	2.e-	2r	2c
4g	.	.	.
4a	.	4c	4F
=8	=8	=8	=8
4b-	4d	2d	4B-
4dd	4f	.	4A
4dd	4f	4B	4G#
=9	=9	=9	=9
2ff	2dd	2A	2.A
4ee	4cc#	4g	.
=10	=10	=10	=10
4dd	4dd	4f	4D
4r	4r	4r	4r
4d	4r	4r	4r
=11	=11	=11	=11
4dd	4d	4r	4B-
4cc	4e-	4a	4c
4b-	4f	4b-	4d
=12	=12	=12	=12
4b-	2g	4g	2e-
4b-	.	2r	.
4b-	4f	.	4d
=13	=13	=13	=13
4ee-	4e-	4r	4c
4dd	4f	4b	4d
4cc	4g	4cc	4e-
=14	=14	=14	=14
4cc	2a	4a	2f
4cc	.	2r	.
4cc	4g	.	4e-
=15	=15	=15	=15
4ff	4f	4r	4d
4ee-	4g	4cc	4e-
4dd	4a	4dd	4f
=16	=16	=16	=16
4dd	4b-	[2.b-	2.g
4dd	4dd	.	.
4ee	4cc	.	.
=17	=17	=17	=17
[2.ff	4cc	4b-]	[2.f
.	4cc	4a	.
.	4dd	4b-	.
=18	=18	=18	=18
2.ff]	4ee-	4cc	2.f]
.	4cc	4a	.
.	[4dd	[4b-	.
=19	=19	=19	=19
[2.gg	4dd]	4b-]	[2.e-
.	4cc	4a	.
.	4cc	4a	.
=20	=20	=20	=20
4gg]	[2.cc	[2.a	2.e-_
4ff	.	.	.
4ff	.	.	.
=21	=21	=21	=21
4ff	2.cc]	4a]	2.e-]
4gg	.	4g	.
4aa	.	4f	.
=22	=22	=22	=22
4bb-	4ff	4f	4d
4ccc	4aa	4e-	4c
4ddd	4bb-	4d	4B-
=23	=23	=23	=23
2dd	2b-	2f	2f
4cc	4a	4F	4F
=24	=24	=24	=24
[2.b-	4b-	4B-	4B-
.	4r	2r	2r
.	4B-	.	.
=25	=25	=25	=25
2.b-_	4b-	2.r	2r
.	4a-	.	.
.	4g	.	4BB-
=26	=26	=26	=26
2.b-]	4g	2r	4B-
.	4f	.	4A-
.	4e-	4B-	4G
=27	=27	=27	=27
2.b-	4e-	4B-	4G
.	4d	4A-	4F
.	4e-	4G	4E-
=28	=28	=28	=28
4b-	[2.B-	2F	2D
4a-	.	.	.
4g	.	4B-	4E-
=29	=29	=29	=29
4g	2.B-_	4B-	[2.EE-
4f	.	4A-	.
4e-	.	4G	.
=30	=30	=30	=30
4e-	2.B-_	[2.G	2.EE-]
4d	.	.	.
4c#	.	.	.
=31	=31	=31	=31
2.c#	2.B-]	2.G]	[2.DD
=32	=32	=32	=32
4d	4A	4F#	4DD]
8e	2r	2r	2r
8f#	.	.	.
8g	.	.	.
8a	.	.	.
=33	=33	=33	=33
4b-	4B-	2.r	4G
4a	4c	.	4A
4g	4d	.	4B-
=34	=34	=34	=34
4g	2e-	2r	2c
4g	.	.	.
4g	4d	4d	4B-
=35	=35	=35	=35
4cc	[2.f#	[2.c	[2.A
4cc	.	.	.
4dd	.	.	.
=36	=36	=36	=36
2ee-	2.f#_	2.c_	2.A_
4ee-	.	.	.
=37	=37	=37	=37
4dd	4f#]	4c]	4A]
2r	2r	2r	2r
=38	=38	=38	=38
4c	2.r	2.r	2.r
4c	.	.	.
4d	.	.	.
=39	=39	=39	=39
2f	2r	2.r	2r
4e-	4B-	.	4G
=40	=40	=40	=40
4d	4A	4r	2F#
4cc	4a	4d	.
4b-	4g	4d	4G
=41	=41	=41	=41
4b-	[2.e-	2.e-	[2.C
4a-	.	.	.
4a-	.	.	.
=42	=42	=42	=42
4a-	4e-]	4e-	4C]
4g	4B-	4e	4C#
4g	4B-	4e	4C#
=43	=43	=43	=43
2g	2B-	[2.d	2.D
8a	8c	.	.
8f#	8A	.	.
=44	=44	=44	=44
4g	4G	4d]	[2.GG
4r	4r	4B	.
4G	4G	4G	.
=45	=45	=45	=45
4g	4e-	[2.G	2.GG_
4f	4d	.	.
4e-	4c	.	.
=46	=46	=46	=46
4e-	4c	4G]	2.GG_
4d	4B	4G	.
4f	4d	4G	.
=47	=47	=47	=47
2f	2d	4G	4GG]
.	.	2r	4FF#
4e-	4c	.	4FF#
=48	=48	=48	=48
4d	4B	4r	[2.GG
4g	4e-	4G	.
4f	4d	4G	.
=49	=49	=49	=49
2f	2d	4G	4GG]
.	.	2r	4FF#
4e-	4c	.	4FF#
=50	=50	=50	=50
4d	4B	4r	[2.GG
4g	4e-	4G	.
4f	4d	4G	.
=51	=51	=51	=51
2f	2d	4G	4GG]
.	.	4F#	4FF#
4e-	4c	4F#	4FF#
=52	=52	=52	=52
4d	4B	4G	4GG
4r	4r	4r	4r
4B-	4r	4r	4r
=53	=53	=53	=53
8e-	4e- 4G	4e-	4E-
8B-	.	.	.
8G	2r	2r	2r
8B-	.	.	.
8e-	.	.	.
8B-	.	.	.
=54	=54	=54	=54
8g	2.r	2.r	2r
8e-	.	.	.
8b-	.	.	.
8g	.	.	.
8b-	.	.	4E-
8g	.	.	.
=55	=55	=55	=55
8b-	2.r	2.r	4F
8a-	.	.	.
8f	.	.	4D
8a-	.	.	.
8g	.	.	4E-
8e-	.	.	.
=56	=56	=56	=56
8d	2r	2r	4B-
8e-	.	.	.
8f	.	.	4r
8d	.	.	.
8B-	4B-	4f	4A-
8d	.	.	.
=57	=57	=57	=57
8e-	2e-	4e-	4G
8B-	.	.	.
8G	.	2r	2r
8B-	.	.	.
8e-	4g	.	.
8B-	.	.	.
=58	=58	=58	=58
8g	[2.b-	2.g	4E-
8e-	.	.	.
8b-	.	.	2r
8g	.	.	.
8b-	.	.	.
8g	.	.	.
=59	=59	=59	=59
8f	2.b-]	2f	4D
8d	.	.	.
8b-	.	.	2r
8f	.	.	.
8b-	.	[4b-	.
8f	.	.	.
=60	=60	=60	=60
8c	2.ee-	4b-]	2C
8e-	.	.	.
8f	.	4a	.
8a	.	.	.
8cc	.	4a	4FF
8ee-	.	.	.
=61	=61	=61	=61
8dd	4dd	4b-	4BB-
8b-	.	.	.
8a	4b-	4r	2r
8b-	.	.	.
8f	4r	4d	.
8b-	.	.	.
=62	=62	=62	=62
8g	2r	4e-	2r
8b-	.	.	.
8f	.	4d	.
8b-	.	.	.
8a	4ee-	4c	4F
8ee-	.	.	.
=63	=63	=63	=63
8dd	4dd	4B-	2BB-
8b-	.	.	.
8a	4b-	4d	.
8b-	.	.	.
8f	4r	4d	4r
8b-	.	.	.
=64	=64	=64	=64
8g	2r	4e-	2r
8b-	.	.	.
8f	.	4d	.
8b-	.	.	.
8a	4ee-	4c	4F
8ee-	.	.	.
=65	=65	=65	=65
8dd	4dd	4B-	2BB-
8b-	.	.	.
8a	4b-	4d	.
8b-	.	.	.
8f	[4ff	4a-	4D
8a-	.	.	.
=66	=66	=66	=66
8g	4ff]	4g	2E-
8b	.	.	.
8cc	4g	4ee-	.
8ee-	.	.	.
8e-	[4ee-	4g	4C
8g	.	.	.
=67	=67	=67	=67
8f	4ee-]	4f	2D
8a	.	.	.
8b-	4f	4dd	.
8dd	.	.	.
8d	[4dd	4f	4BB-
8dd	.	.	.
=68	=68	=68	=68
8e-	4dd]	2.g	4E-
8dd	.	.	.
8e	4cc	.	4r
8cc	.	.	.
8g	4b-	.	4E
8b-	.	.	.
=69	=69	=69	=69
8a	2a	4c	4F
8f	.	.	.
8e	.	2r	2r
8f	.	.	.
8cc	4cc	.	.
8a	.	.	.
=70	=70	=70	=70
8ee-	2.ee-	2.cc	2.AA
8cc	.	.	.
8a	.	.	.
8f	.	.	.
8e-	.	.	.
8c	.	.	.
=71	=71	=71	=71
8d	4dd	2f	4BB-
8f	.	.	.
8b-	4b-	.	4D
8d	.	.	.
8c	4a	4e-	4F
8a	.	.	.
=72	=72	=72	=72
4B-	4b-	4d	4BB-
4r	4r	4r	4r
4B-	4r	4r	4r
=73	=73	=73	=73
8d-	2r	2r	2r
8B-	.	.	.
8G	.	.	.
8B-	.	.	.
8G	4e	4B-	4C
8e	.	.	.
=74	=74	=74	=74
8f	4f	4A-	4AA-
8c	.	.	.
8d-	4a-	4r	4r
8c	.	.	.
8a-	4a-	4c	4F
8c	.	.	.
=75	=75	=75	=75
8g	4g	4c	4E
8c	.	.	.
8d-	4b-	4r	4r
8c	.	.	.
8b-	4b-	4c	4E
8c	.	.	.
=76	=76	=76	=76
8a-	4a-	4f	2F
8c	.	.	.
8d-	4ff	4a-	.
8c	.	.	.
8a-	4ff	4a-	4E-
8c	.	.	.
=77	=77	=77	=77
8a-	2ff	2a-	2.D
8B-	.	.	.
8c	.	.	.
8B-	.	.	.
8a-	4a-	4f	.
8B-	.	.	.
=78	=78	=78	=78
8g	4g	4e-	2E-
8B-	.	.	.
8c	4ee-	4g	.
8B-	.	.	.
8g	4ee-	4g	4D
8B-	.	.	.
=79	=79	=79	=79
8g	2ee-	2g	2.C
8A-	.	.	.
8B-	.	.	.
8A-	.	.	.
8g	4g	4e-	.
8A-	.	.	.
=80	=80	=80	=80
8f	4f	4d	2D
8A-	.	.	.
8B-	4dd	4f	.
8A-	.	.	.
8f	4dd	4f	4C
8A-	.	.	.
=81	=81	=81	=81
8f	2dd	2f	2.BB
8G	.	.	.
8A-	.	.	.
8G	.	.	.
8f	4f	4d	.
8G	.	.	.
=82	=82	=82	=82
8e-	4e-	4c	4C
8c	.	.	.
8B	4f#	4r	4r
8c	.	.	.
8A-	4f#	4c	4AA-
8f#	.	.	.
=83	=83	=83	=83
8G	4g	4B	4GG
8g	.	.	.
8f#	4r	4r	2r
8g	.	.	.
8e-	4ee-	4cc	.
8c	.	.	.
=84	=84	=84	=84
8G	4dd	4b	4GG
8g	.	.	.
8f#	4r	4r	2r
8g	.	.	.
8e-	4cc	4e-	.
8c	.	.	.
=85	=85	=85	=85
8G	4b	4d	4GG
8g	.	.	.
8f#	4r	4r	2r
8g	.	.	.
8e-	4g	4e-	.
8c	.	.	.
=86	=86	=86	=86
8G	4f	4d	4GG
8g	.	.	.
8f#	4r	4r	2r
8g	.	.	.
8e-	4e-	4c	.
8c	.	.	.
=87	=87	=87	=87
4G	4d	4B	4GG
2r	2r	2r	2r
=88	=88	=88	=88
2.r	2.r	2.r	2.r
==	==	==	==
*-	*-	*-	*-
!!!RWG1: This file contains only pitch and duration data.
!!!RWG2: Transposing instruments are not transposed.
!!!RWG3: Spines may have incompatible meters.
!!!RWG4: Durations of rests and tied notes may be interpreted.
!!!RWG: Key is interpreted using the Humdrum key tool.
!!!GTL: 6 Divertimentos ("Sun")
!!!AFT: stage1
!!!END: 1997/04/15
!!format changes:
!!content changes:
!!public access: complete
!!!KEY: 2149461094
!!!EMD: Converted from MuseData to Humdrum Dec 16, 2000, by Andreas Kornstaedt using muse2kern.
